!!!OTL: Suqu zhengquan kaihonghua
!!!ARE: Asia, China, Fujian Yongding
!! II, 584
!!!SCT: C2006
!!!YEM: Copyright 1995, estate of Helmut Schaffrath.
**kern
*ICvox
*Ivox
!! Mixed meters:  2/4; 3/4
*M3/4
*k[f#c#]
*D:
{8dd
8ff#
4ee
=1
8ff#
8ff#
4ee
=2
4ff#
8ff#
8dd
=3
8ee
4.ee}
=4
{8dd
8ff#
4ee
=5
8ff#
8ff#
4ee
=6
4ee
8ee
8dd
=7
8b
4.b}
=8
{8b
8ff#
4ee
=9
8ff#
8ff#
4ee
=10
4ee
8ee
8dd
=11
8b
4.dd}
=12
{8b
8ff#
4ee
=13
8ff#
8ff#
4ee
=14
4ee
8ee
8dd
=15
4b
4b}
=16
{8dd
8b
4.dd
8ff#
=17
*M2/4
8ee
8ff#
8ee
8dd
=18
4b
4b}
==
!!!AGN: Xiaodiao
!!!AMT: irregular
!!!AIN: vox
!!!EED: Helmut Schaffrath
!!!EEV: 1.0
*-
